art/dp/systems_sel/virtualboy.svg

<svg enable-background="new 0 0 3839 1027.7" viewBox="0 0 3839 1027.7" xmlns="http://www.w3.org/2000/svg"><g fill="#fff"><path d="m1379.5 26.9h-111.2-111.7-111.1v111.5h111.1v862.5h111.7v-862.5h111.2z"/><path d="m1648.9 26.9v862.3h-110.7v-862.3h-111.7v816.1c0 92.2 74.8 167.1 167.1 167.1 92.2 0 167.1-74.8 167.1-167.1v-816.1z"/><path d="m2094.4 1000.9h95.1l-200.2-1000.9-200.3 1000.9h95.1l23-115h164.1zm-164.8-226.7 59.7-298.5 59.7 298.5z"/><path d="m0 26.9 200.3 1000.8 200.2-1000.8h-95.1l-105.1 525.1-105-525.1z"/><path d="m2982.5 169.9c0-79-64-143-143-143h-79.3-78.5-33.2v974h33.2 157.8c79 0 143-64 143-143v-245.6c0-32.3-15.6-71.7-39.6-98.4 24-26.6 39.6-66.1 39.6-98.4zm-111.7-31.5v319.6h-110.7v-319.6zm-110.7 750.8v-319.5h110.7v319.5z"/><path d="m3839 26.9h-95.3l-103.6 432.9-103.7-432.9h-96l142.9 596.5v377.5h111.7v-369.6z"/><path d="m462.1 26.9h111.7v974h-111.7z"/><path d="m1057.2 1000.9-125.9-446.4c46.9-23.5 79.1-71.9 79.1-127.9v-256.7c0-79-64-143-143-143h-79.3-111.8v111.7 862.3h111.7v-542.8-319.7h110.7v319.6h-110.7l2.4 8.8 150.7 534.1z"/><path d="m2354.2 889.2v-862.3h-111.7v862.3 55.9 55.8h282.6v-111.7z"/><path d="m3241.9 17.8c-92.2 0-167.1 74.8-167.1 167.1v136.7 409.4 112.1c0 92.2 74.8 167.1 167.1 167.1 92.2 0 167.1-74.8 167.1-167.1v-112.2-149.7-134.6-125.2-136.7c0-92.2-74.8-166.9-167.1-166.9zm55.4 303.6v259.8 149.7 158.3h-110.7v-308-134.6-308h110.7z"/></g></svg>

<?xml version="1.0" encoding="UTF-8" standalone="no"?>
<svg
   enable-background="new 0 0 3839 1027.7"
   viewBox="0 0 3840 1028"
   version="1.1"
   id="svg10"
   sodipodi:docname="virtualboy.svg"
   width="3840"
   height="1028"
   inkscape:version="1.3.2 (091e20e, 2023-11-25)"
   xmlns:inkscape="http://www.inkscape.org/namespaces/inkscape"
   xmlns:sodipodi="http://sodipodi.sourceforge.net/DTD/sodipodi-0.dtd"
   xmlns="http://www.w3.org/2000/svg"
   xmlns:svg="http://www.w3.org/2000/svg">
  <defs
     id="defs10" />
  <sodipodi:namedview
     id="namedview10"
     pagecolor="#ffffff"
     bordercolor="#000000"
     borderopacity="0.25"
     inkscape:showpageshadow="2"
     inkscape:pageopacity="0.0"
     inkscape:pagecheckerboard="0"
     inkscape:deskcolor="#d1d1d1"
     inkscape:zoom="0.22963901"
     inkscape:cx="1920.4054"
     inkscape:cy="513.84998"
     inkscape:window-width="1312"
     inkscape:window-height="449"
     inkscape:window-x="0"
     inkscape:window-y="23"
     inkscape:window-maximized="0"
     inkscape:current-layer="svg10" />
  <g
     id="g11"
     transform="scale(1.0002605,1.0002919)">
    <g
       fill="#ffffff"
       id="g10">
      <path
         d="m 1379.5,26.9 h -111.2 -111.7 -111.1 v 111.5 h 111.1 v 862.5 h 111.7 V 138.4 h 111.2 z"
         id="path1" />
      <path
         d="M 1648.9,26.9 V 889.2 H 1538.2 V 26.9 H 1426.5 V 843 c 0,92.2 74.8,167.1 167.1,167.1 92.2,0 167.1,-74.8 167.1,-167.1 V 26.9 Z"
         id="path2" />
      <path
         d="m 2094.4,1000.9 h 95.1 L 1989.3,0 1789,1000.9 h 95.1 l 23,-115 h 164.1 z m -164.8,-226.7 59.7,-298.5 59.7,298.5 z"
         id="path3" />
      <path
         d="M 0,26.9 200.3,1027.7 400.5,26.9 H 305.4 L 200.3,552 95.3,26.9 Z"
         id="path4" />
      <path
         d="m 2982.5,169.9 c 0,-79 -64,-143 -143,-143 h -79.3 -78.5 -33.2 v 974 h 33.2 157.8 c 79,0 143,-64 143,-143 V 612.3 c 0,-32.3 -15.6,-71.7 -39.6,-98.4 24,-26.6 39.6,-66.1 39.6,-98.4 z M 2870.8,138.4 V 458 H 2760.1 V 138.4 Z M 2760.1,889.2 V 569.7 h 110.7 v 319.5 z"
         id="path5" />
      <path
         d="m 3839,26.9 h -95.3 L 3640.1,459.8 3536.4,26.9 h -96 l 142.9,596.5 v 377.5 H 3695 V 631.3 Z"
         id="path6" />
      <path
         d="m 462.1,26.9 h 111.7 v 974 H 462.1 Z"
         id="path7" />
      <path
         d="M 1057.2,1000.9 931.3,554.5 c 46.9,-23.5 79.1,-71.9 79.1,-127.9 V 169.9 c 0,-79 -64,-143 -143,-143 H 788.1 676.3 v 111.7 862.3 H 788 V 458.1 138.4 H 898.7 V 458 H 788 l 2.4,8.8 150.7,534.1 z"
         id="path8" />
      <path
         d="M 2354.2,889.2 V 26.9 h -111.7 v 862.3 55.9 55.8 h 282.6 V 889.2 Z"
         id="path9" />
      <path
         d="m 3241.9,17.8 c -92.2,0 -167.1,74.8 -167.1,167.1 V 321.6 731 843.1 c 0,92.2 74.8,167.1 167.1,167.1 92.2,0 167.1,-74.8 167.1,-167.1 V 730.9 581.2 446.6 321.4 184.7 C 3409,92.5 3334.2,17.8 3241.9,17.8 Z m 55.4,303.6 v 259.8 149.7 158.3 h -110.7 v -308 -134.6 -308 h 110.7 z"
         id="path10" />
    </g>
  </g>
</svg>
